scripts/video-pipeline/hlg709.cube
TITLE "HLG BT.2020 -> sRGB BT.709 (chain-matched)"
LUT_3D_SIZE 33
0.000000 0.000000 0.000000
0.006257 0.000000 0.000000
0.028744 0.000000 0.000000
0.065038 0.000000 0.000000
0.101231 0.000000 0.000000
0.136644 0.000000 0.000000
0.171435 0.000000 0.000000
0.205704 0.000000 0.000000
0.239519 0.000000 0.000000
0.272926 0.000000 0.000000
0.305963 0.000000 0.000000
0.338655 0.000000 0.000000
0.371022 0.000000 0.000000
0.403079 0.000000 0.000000
0.434838 0.000000 0.000000
0.466308 0.000000 0.000000
0.497495 0.000000 0.000000
0.530181 0.000000 0.000000
0.566279 0.000000 0.000000
0.605991 0.000000 0.000000
0.649514 0.000000 0.000000
0.697036 0.000000 0.000000
0.748732 0.000000 0.000000
0.804756 0.000000 0.000000
0.865234 0.000000 0.000000
0.930251 0.000000 0.000000
0.999841 0.000000 0.000000
1.000000 0.000000 0.000000
1.000000 0.000000 0.000000
1.000000 0.000000 0.000000
1.000000 0.000000 0.000000
1.000000 0.000000 0.000000
1.000000 0.000000 0.000000
0.000000 0.004269 0.000000
0.004043 0.003799 0.000000
0.026530 0.002112 0.000000
0.063444 0.000000 0.000000
0.100134 0.000000 0.000000
0.135821 0.000000 0.000000
0.170785 0.000000 0.000000
0.205170 0.000000 0.000000
0.239068 0.000000 0.000000
0.272539 0.000000 0.000000
0.305625 0.000000 0.000000
0.338355 0.000000 0.000000
0.370753 0.000000 0.000000
0.402837 0.000000 0.000000
0.434617 0.000000 0.000000
0.466106 0.000000 0.000000
0.497309 0.000000 0.000000
0.530009 0.000000 0.000000
0.566121 0.000000 0.000000
0.605846 0.000000 0.000000
0.649382 0.000000 0.000000
0.696915 0.000000 0.000000
0.748622 0.000000 0.000000
0.804656 0.000000 0.000000
0.865142 0.000000 0.000000
0.930168 0.000000 0.000000
0.999766 0.000000 0.000000
1.000000 0.000000 0.000000
1.000000 0.000000 0.000000
1.000000 0.000000 0.000000
1.000000 0.000000 0.000000
1.000000 0.000000 0.000000
1.000000 0.000000 0.000000
0.000000 0.019611 0.000000
0.000000 0.019141 0.000000
0.018572 0.017454 0.000000
0.057449 0.014350 0.000000
0.096097 0.009708 0.000000
0.132822 0.003440 0.000000
0.168423 0.000000 0.000000
0.203238 0.000000 0.000000
0.237443 0.000000 0.000000
0.271143 0.000000 0.000000
0.304405 0.000000 0.000000
0.337276 0.000000 0.000000
0.369787 0.000000 0.000000
0.401964 0.000000 0.000000
0.433823 0.000000 0.000000
0.465378 0.000000 0.000000
0.496638 0.000000 0.000000
0.529391 0.000000 0.000000
0.565552 0.000000 0.000000
0.605325 0.000000 0.000000
0.648905 0.000000 0.000000
0.696480 0.000000 0.000000
0.748225 0.000000 0.000000
0.804295 0.000000 0.000000
0.864814 0.000000 0.000000
0.929870 0.000000 0.000000
0.999495 0.000000 0.000000
1.000000 0.000000 0.000000
1.000000 0.000000 0.000000
1.000000 0.000000 0.000000
1.000000 0.000000 0.000000
1.000000 0.000000 0.000000
1.000000 0.000000 0.000000
0.000000 0.047361 0.000000
0.000000 0.046941 0.000000
0.003932 0.045412 0.000000
0.045066 0.042510 0.000000
0.088246 0.037935 0.000000
0.127121 0.031668 0.000000
0.163986 0.023706 0.000000
0.199630 0.013993 0.000000
0.234419 0.002485 0.000000
0.268551 0.000000 0.000000
0.302146 0.000000 0.000000
0.335278 0.000000 0.000000
0.368002 0.000000 0.000000
0.400353 0.000000 0.000000
0.432358 0.000000 0.000000
0.464036 0.000000 0.000000
0.495402 0.000000 0.000000
0.528250 0.000000 0.000000
0.564504 0.000000 0.000000
0.604364 0.000000 0.000000
0.648026 0.000000 0.000000
0.695679 0.000000 0.000000
0.747495 0.000000 0.000000
0.803631 0.000000 0.000000
0.864211 0.000000 0.000000
0.929321 0.000000 0.000000
0.998997 0.000000 0.000000
1.000000 0.000000 0.000000
1.000000 0.000000 0.000000
1.000000 0.000000 0.000000
1.000000 0.000000 0.000000
1.000000 0.000000 0.000000
1.000000 0.000000 0.000000
0.000000 0.078224 0.000000
0.000000 0.077934 0.000000
0.000000 0.076885 0.000000
0.023414 0.074923 0.000000
0.075237 0.071910 0.000000
0.118099 0.067677 0.000000
0.157105 0.061984 0.000000
0.194097 0.054466 0.000000
0.229813 0.044498 0.000000
0.264622 0.031349 0.000000
0.298730 0.016143 0.000000
0.332265 0.000000 0.000000
0.365313 0.000000 0.000000
0.397929 0.000000 0.000000
0.430155 0.000000 0.000000
0.462020 0.000000 0.000000
0.493545 0.000000 0.000000
0.526539 0.000000 0.000000
0.562932 0.000000 0.000000
0.602924 0.000000 0.000000
0.646710 0.000000 0.000000
0.694478 0.000000 0.000000
0.746402 0.000000 0.000000
0.802636 0.000000 0.000000
0.863307 0.000000 0.000000
0.928500 0.000000 0.000000
0.998250 0.000000 0.000000
1.000000 0.000000 0.000000
1.000000 0.000000 0.000000
1.000000 0.000000 0.000000
1.000000 0.000000 0.000000
1.000000 0.000000 0.000000
1.000000 0.000000 0.000000
0.000000 0.108422 0.000000
0.000000 0.108204 0.000000
0.000000 0.107418 0.000000
0.000000 0.105959 0.000000
0.054075 0.103742 0.000000
0.104758 0.100677 0.000000
0.147287 0.096658 0.000000
0.186342 0.091544 0.000000
0.223424 0.085141 0.000000
0.259206 0.077163 0.000000
0.294043 0.067159 0.000000
0.328144 0.054332 0.000000
0.361643 0.037033 0.000000
0.394627 0.016112 0.000000
0.427158 0.000000 0.000000
0.459280 0.000000 0.000000
0.491025 0.000000 0.000000
0.524217 0.000000 0.000000
0.560800 0.000000 0.000000
0.600972 0.000000 0.000000
0.644927 0.000000 0.000000
0.692852 0.000000 0.000000
0.744922 0.000000 0.000000
0.801291 0.000000 0.000000
0.862084 0.000000 0.000000
0.927390 0.000000 0.000000
0.997242 0.000000 0.000000
1.000000 0.000000 0.000000
1.000000 0.000000 0.000000
1.000000 0.000000 0.000000
1.000000 0.000000 0.000000
1.000000 0.000000 0.000000
1.000000 0.000000 0.000000
0.000000 0.138089 0.000000
0.000000 0.137917 0.000000
0.000000 0.137296 0.000000
0.000000 0.136146 0.000000
0.018171 0.134409 0.000000
0.085152 0.132027 0.000000
0.133761 0.128939 0.000000
0.175956 0.125071 0.000000
0.214999 0.120331 0.000000
0.252131 0.114601 0.000000
0.287959 0.107721 0.000000
0.322818 0.099465 0.000000
0.356915 0.089497 0.000000
0.390383 0.077270 0.000000
0.423314 0.061793 0.000000
0.455770 0.040861 0.000000
0.487799 0.014150 0.000000
0.521249 0.000000 0.000000
0.558077 0.000000 0.000000
0.598480 0.000000 0.000000
0.642653 0.000000 0.000000
0.690780 0.000000 0.000000
0.743037 0.000000 0.000000
0.799577 0.000000 0.000000
0.860528 0.000000 0.000000
0.925977 0.000000 0.000000
0.995958 0.000000 0.000000
1.000000 0.000000 0.000000
1.000000 0.000000 0.000000
1.000000 0.000000 0.000000
1.000000 0.000000 0.000000
1.000000 0.000000 0.000000
1.000000 0.000000 0.000000
0.000000 0.167311 0.000000
0.000000 0.167170 0.000000
0.000000 0.166661 0.000000
0.000000 0.165720 0.000000
0.000000 0.164302 0.000000
0.054217 0.162367 0.000000
0.115159 0.159874 0.000000
0.162328 0.156776 0.000000
0.204195 0.153022 0.000000
0.243180 0.148548 0.000000
0.280326 0.143274 0.000000
0.316174 0.137100 0.000000
0.351042 0.129895 0.000000
0.385128 0.121477 0.000000
0.418564 0.111589 0.000000
0.451442 0.099841 0.000000
0.483828 0.085589 0.000000
0.517599 0.066438 0.000000
0.554732 0.035692 0.000000
0.595423 0.000000 0.000000
0.639864 0.000000 0.000000
0.688242 0.000000 0.000000
0.740729 0.000000 0.000000
0.797481 0.000000 0.000000
0.858625 0.000000 0.000000
0.924249 0.000000 0.000000
0.994390 0.000000 0.000000
1.000000 0.000000 0.000000
1.000000 0.000000 0.000000
1.000000 0.000000 0.000000
1.000000 0.000000 0.000000
1.000000 0.000000 0.000000
1.000000 0.000000 0.000000
0.000000 0.196146 0.000000
0.000000 0.196027 0.000000
0.000000 0.195598 0.000000
0.000000 0.194806 0.000000
0.000000 0.193615 0.000000
0.001620 0.191994 0.000000
0.088557 0.189914 0.000000
0.144446 0.187342 0.000000
0.190516 0.184245 0.000000
0.232061 0.180582 0.000000
0.270955 0.176307 0.000000
0.308081 0.171366 0.000000
0.343926 0.165690 0.000000
0.378785 0.159195 0.000000
0.412849 0.151769 0.000000
0.446246 0.143269 0.000000
0.479068 0.133493 0.000000
0.513232 0.121444 0.000000
0.550736 0.105277 0.000000
0.591775 0.082250 0.000000
0.636540 0.044333 0.000000
0.685218 0.000000 0.000000
0.737982 0.000000 0.000000
0.794987 0.000000 0.000000
0.856362 0.000000 0.000000
0.922197 0.000000 0.000000
0.992527 0.000000 0.000000
1.000000 0.000000 0.000000
1.000000 0.000000 0.000000
1.000000 0.000000 0.000000
1.000000 0.000000 0.000000
1.000000 0.000000 0.000000
1.000000 0.000000 0.000000
0.000000 0.224634 0.000000
0.000000 0.224531 0.000000
0.000000 0.224163 0.000000
0.000000 0.223482 0.000000
0.000000 0.222460 0.000000
0.000000 0.221072 0.000000
0.044607 0.219294 0.000000
0.120403 0.217103 0.000000
0.173186 0.214475 0.000000
0.218365 0.211383 0.000000
0.259595 0.207796 0.000000
0.298369 0.203680 0.000000
0.335447 0.198994 0.000000
0.371265 0.193691 0.000000
0.406098 0.187711 0.000000
0.440126 0.180984 0.000000
0.473475 0.173417 0.000000
0.508109 0.164368 0.000000
0.546056 0.152778 0.000000
0.587508 0.137575 0.000000
0.632658 0.116820 0.000000
0.681690 0.086145 0.000000
0.734780 0.029005 0.000000
0.792083 0.000000 0.000000
0.853730 0.000000 0.000000
0.919810 0.000000 0.000000
0.990362 0.000000 0.000000
1.000000 0.000000 0.000000
1.000000 0.000000 0.000000
1.000000 0.000000 0.000000
1.000000 0.000000 0.000000
1.000000 0.000000 0.000000
1.000000 0.000000 0.000000
0.000000 0.252806 0.000000
0.000000 0.252716 0.000000
0.000000 0.252393 0.000000
0.000000 0.251799 0.000000
0.000000 0.250907 0.000000
0.000000 0.249697 0.000000
0.000000 0.248150 0.000000
0.085632 0.246248 0.000000
0.150867 0.243972 0.000000
0.201481 0.241303 0.000000
0.245905 0.238219 0.000000
0.286824 0.234697 0.000000
0.325457 0.230711 0.000000
0.362462 0.226230 0.000000
0.398231 0.221218 0.000000
0.433019 0.215634 0.000000
0.466998 0.209428 0.000000
0.502189 0.202119 0.000000
0.540658 0.192952 0.000000
0.582597 0.181303 0.000000
0.628196 0.166208 0.000000
0.677641 0.146024 0.000000
0.731109 0.117440 0.000000
0.788757 0.070939 0.000000
0.850716 0.000000 0.000000
0.917079 0.000000 0.000000
0.987887 0.000000 0.000000
1.000000 0.000000 0.000000
1.000000 0.000000 0.000000
1.000000 0.000000 0.000000
1.000000 0.000000 0.000000
1.000000 0.000000 0.000000
1.000000 0.000000 0.000000
0.000000 0.280683 0.000000
0.000000 0.280604 0.000000
0.000000 0.280318 0.000000
0.000000 0.279792 0.000000
0.000000 0.279003 0.000000
0.000000 0.277933 0.000000
0.000000 0.276568 0.000000
0.021919 0.274891 0.000000
0.120841 0.272889 0.000000
0.180420 0.270547 0.000000
0.229393 0.267848 0.000000
0.273158 0.264775 0.000000
0.313770 0.261311 0.000000
0.352244 0.257434 0.000000
0.389153 0.253121 0.000000
0.424853 0.248346 0.000000
0.459579 0.243077 0.000000
0.495428 0.236926 0.000000
0.534508 0.229304 0.000000
0.577012 0.219778 0.000000
0.623130 0.207730 0.000000
0.673051 0.192232 0.000000
0.726953 0.171751 0.000000
0.784995 0.143370 0.000000
0.847311 0.099736 0.000000
0.913996 0.004632 0.000000
0.985094 0.000000 0.000000
1.000000 0.000000 0.000000
1.000000 0.000000 0.000000
1.000000 0.000000 0.000000
1.000000 0.000000 0.000000
1.000000 0.000000 0.000000
1.000000 0.000000 0.000000
0.000000 0.308283 0.000000
0.000000 0.308212 0.000000
0.000000 0.307957 0.000000
0.000000 0.307486 0.000000
0.000000 0.306780 0.000000
0.000000 0.305824 0.000000
0.000000 0.304605 0.000000
0.000000 0.303109 0.000000
0.075495 0.301326 0.000000
0.153388 0.299243 0.000000
0.209302 0.296847 0.000000
0.256965 0.294127 0.000000
0.300139 0.291068 0.000000
0.340448 0.287655 0.000000
0.378747 0.283873 0.000000
0.415541 0.279702 0.000000
0.451153 0.275123 0.000000
0.487773 0.269809 0.000000
0.527565 0.263272 0.000000
0.570721 0.255184 0.000000
0.617437 0.245099 0.000000
0.667902 0.232386 0.000000
0.722297 0.216106 0.000000
0.780786 0.194743 0.000000
0.843505 0.165495 0.000000
0.910554 0.121718 0.000000
0.981978 0.030968 0.000000
1.000000 0.000000 0.000000
1.000000 0.000000 0.000000
1.000000 0.000000 0.000000
1.000000 0.000000 0.000000
1.000000 0.000000 0.000000
1.000000 0.000000 0.000000
0.000000 0.335619 0.000000
0.000000 0.335555 0.000000
0.000000 0.335324 0.000000
0.000000 0.334899 0.000000
0.000000 0.334262 0.000000
0.000000 0.333400 0.000000
0.000000 0.332300 0.000000
0.000000 0.330953 0.000000
0.000000 0.329348 0.000000
0.116388 0.327475 0.000000
0.184366 0.325326 0.000000
0.237654 0.322888 0.000000
0.284229 0.320153 0.000000
0.326863 0.317109 0.000000
0.366869 0.313743 0.000000
0.404980 0.310044 0.000000
0.441642 0.305996 0.000000
0.479166 0.301317 0.000000
0.519783 0.295592 0.000000
0.563691 0.288555 0.000000
0.611089 0.279858 0.000000
0.662171 0.269031 0.000000
0.717124 0.255412 0.000000
0.776116 0.238026 0.000000
0.839289 0.215308 0.000000
0.906743 0.184408 0.000000
0.978531 0.138736 0.000000
1.000000 0.048934 0.000000
1.000000 0.000000 0.000000
1.000000 0.000000 0.000000
1.000000 0.000000 0.000000
1.000000 0.000000 0.000000
1.000000 0.000000 0.000000
0.000000 0.362701 0.000000
0.000000 0.362643 0.000000
0.000000 0.362433 0.000000
0.000000 0.362046 0.000000
0.000000 0.361466 0.000000
0.000000 0.360682 0.000000
0.000000 0.359682 0.000000
0.000000 0.358458 0.000000
0.000000 0.357001 0.000000
0.055160 0.355303 0.000000
0.152136 0.353356 0.000000
0.214287 0.351151 0.000000
0.265564 0.348681 0.000000
0.311206 0.345936 0.000000
0.353337 0.342907 0.000000
0.393043 0.339586 0.000000
0.430953 0.335960 0.000000
0.469538 0.331783 0.000000
0.511112 0.326689 0.000000
0.555882 0.320458 0.000000
0.604057 0.312805 0.000000
0.655838 0.303355 0.000000
0.711419 0.291604 0.000000
0.770974 0.276848 0.000000
0.834651 0.258047 0.000000
0.902557 0.233540 0.000000
0.974748 0.200308 0.000000
1.000000 0.151365 0.000000
1.000000 0.055563 0.000000
1.000000 0.000000 0.000000
1.000000 0.000000 0.000000
1.000000 0.000000 0.000000
1.000000 0.000000 0.000000
0.000000 0.389537 0.000000
0.000000 0.389483 0.000000
0.000000 0.389291 0.000000
0.000000 0.388936 0.000000
0.000000 0.388405 0.000000
0.000000 0.387687 0.000000
0.000000 0.386772 0.000000
0.000000 0.385652 0.000000
0.000000 0.384320 0.000000
0.000000 0.382768 0.000000
0.106455 0.380991 0.000000
0.185222 0.378980 0.000000
0.243427 0.376730 0.000000
0.293090 0.374233 0.000000
0.337912 0.371483 0.000000
0.379571 0.368471 0.000000
0.418976 0.365190 0.000000
0.458807 0.361419 0.000000
0.501492 0.356832 0.000000
0.547252 0.351241 0.000000
0.596309 0.344404 0.000000
0.648879 0.336012 0.000000
0.705163 0.325658 0.000000
0.765346 0.312797 0.000000
0.829582 0.296666 0.000000
0.897987 0.276139 0.000000
0.970622 0.249416 0.000000
1.000000 0.213187 0.000000
1.000000 0.159657 0.000000
1.000000 0.050810 0.000000
1.000000 0.000000 0.000000
1.000000 0.000000 0.000000
1.000000 0.000000 0.000000
0.000000 0.416131 0.000000
0.000000 0.416082 0.000000
0.000000 0.415905 0.000000
0.000000 0.415578 0.000000
0.000000 0.415088 0.000000
0.000000 0.414426 0.000000
0.000000 0.413584 0.000000
0.000000 0.412553 0.000000
0.000000 0.411327 0.000000
0.000000 0.409900 0.000000
0.016815 0.408267 0.000000
0.147037 0.406421 0.000000
0.216651 0.404357 0.000000
0.271953 0.402069 0.000000
0.320273 0.399552 0.000000
0.364361 0.396799 0.000000
0.405570 0.393805 0.000000
0.446876 0.390369 0.000000
0.490852 0.386199 0.000000
0.537749 0.381129 0.000000
0.587810 0.374951 0.000000
0.641266 0.367400 0.000000
0.698337 0.358137 0.000000
0.759217 0.346719 0.000000
0.824072 0.332549 0.000000
0.893026 0.314793 0.000000
0.966149 0.292219 0.000000
1.000000 0.262834 0.000000
1.000000 0.222917 0.000000
1.000000 0.163351 0.000000
1.000000 0.029626 0.000000
1.000000 0.000000 0.000000
1.000000 0.000000 0.000000
0.000000 0.444004 0.000000
0.000000 0.443958 0.000000
0.000000 0.443795 0.000000
0.000000 0.443493 0.000000
0.000000 0.443042 0.000000
0.000000 0.442431 0.000000
0.000000 0.441654 0.000000
0.000000 0.440704 0.000000
0.000000 0.439575 0.000000
0.000000 0.438262 0.000000
0.000000 0.436759 0.000000
0.085004 0.435061 0.000000
0.180854 0.433165 0.000000
0.245337 0.431065 0.000000
0.298704 0.428756 0.000000
0.346081 0.426235 0.000000
0.389640 0.423496 0.000000
0.432817 0.420357 0.000000
0.478399 0.416554 0.000000
0.526686 0.411941 0.000000
0.577957 0.406334 0.000000
0.632473 0.399506 0.000000
0.690473 0.391167 0.000000
0.752173 0.380949 0.000000
0.817751 0.368369 0.000000
0.887344 0.352780 0.000000
0.961032 0.333280 0.000000
1.000000 0.308528 0.000000
1.000000 0.276342 0.000000
1.000000 0.232580 0.000000
1.000000 0.166695 0.000000
1.000000 0.004430 0.000000
1.000000 0.000000 0.000000
0.000000 0.474786 0.000000
0.000000 0.474744 0.000000
0.000000 0.474593 0.000000
0.000000 0.474316 0.000000
0.000000 0.473901 0.000000
0.000000 0.473340 0.000000
0.000000 0.472626 0.000000
0.000000 0.471753 0.000000
0.000000 0.470716 0.000000
0.000000 0.469511 0.000000
0.000000 0.468132 0.000000
0.000000 0.466576 0.000000
0.124015 0.464839 0.000000
0.208275 0.462917 0.000000
0.270133 0.460805 0.000000
0.322496 0.458502 0.000000
0.369420 0.456002 0.000000
0.415175 0.453141 0.000000
0.462909 0.449680 0.000000
0.513019 0.445490 0.000000
0.565852 0.440409 0.000000
0.621716 0.434239 0.000000
0.680889 0.426733 0.000000
0.743612 0.417580 0.000000
0.810087 0.406385 0.000000
0.880468 0.392633 0.000000
0.954848 0.375639 0.000000
1.000000 0.354449 0.000000
1.000000 0.327652 0.000000
1.000000 0.292951 0.000000
1.000000 0.245971 0.000000
1.000000 0.175439 0.000000
1.000000 0.000000 0.000000
0.000000 0.508650 0.000000
0.000000 0.508611 0.000000
0.000000 0.508473 0.000000
0.000000 0.508219 0.000000
0.000000 0.507839 0.000000
0.000000 0.507324 0.000000
0.000000 0.506670 0.000000
0.000000 0.505871 0.000000
0.000000 0.504921 0.000000
0.000000 0.503818 0.000000
0.000000 0.502556 0.000000
0.000000 0.501134 0.000000
0.000000 0.499546 0.000000
0.150935 0.497791 0.000000
0.230434 0.495865 0.000000
0.291198 0.493765 0.000000
0.343261 0.491488 0.000000
0.392734 0.488885 0.000000
0.443451 0.485741 0.000000
0.496014 0.481939 0.000000
0.550899 0.477340 0.000000
0.608506 0.471768 0.000000
0.669171 0.465012 0.000000
0.733183 0.456807 0.000000
0.800777 0.446824 0.000000
0.872134 0.434646 0.000000
0.947370 0.419738 0.000000
1.000000 0.401391 0.000000
1.000000 0.378627 0.000000
1.000000 0.350016 0.000000
1.000000 0.313250 0.000000
1.000000 0.263984 0.000000
1.000000 0.191246 0.000000
0.000000 0.545763 0.000000
0.000000 0.545728 0.000000
0.000000 0.545602 0.000000
0.000000 0.545369 0.000000
0.000000 0.545021 0.000000
0.000000 0.544551 0.000000
0.000000 0.543953 0.000000
0.000000 0.543223 0.000000
0.000000 0.542355 0.000000
0.000000 0.541348 0.000000
0.000000 0.540196 0.000000
0.000000 0.538898 0.000000
0.000000 0.537451 0.000000
0.009927 0.535851 0.000000
0.169322 0.534097 0.000000
0.247555 0.532186 0.000000
0.308390 0.530116 0.000000
0.363614 0.527752 0.000000
0.418667 0.524899 0.000000
0.474642 0.521455 0.000000
0.532295 0.517294 0.000000
0.592194 0.512266 0.000000
0.654788 0.506184 0.000000
0.720441 0.498823 0.000000
0.789445 0.489905 0.000000
0.862021 0.479087 0.000000
0.938315 0.465941 0.000000
1.000000 0.449921 0.000000
1.000000 0.430315 0.000000
1.000000 0.406160 0.000000
1.000000 0.376066 0.000000
1.000000 0.337837 0.000000
1.000000 0.287450 0.000000
0.000000 0.586287 0.000000
0.000000 0.586255 0.000000
0.000000 0.586140 0.000000
0.000000 0.585927 0.000000
0.000000 0.585610 0.000000
0.000000 0.585181 0.000000
0.000000 0.584636 0.000000
0.000000 0.583969 0.000000
0.000000 0.583179 0.000000
0.000000 0.582260 0.000000
0.000000 0.581211 0.000000
0.000000 0.580029 0.000000
0.000000 0.578711 0.000000
0.000000 0.577256 0.000000
0.020235 0.575661 0.000000
0.179708 0.573924 0.000000
0.259327 0.572045 0.000000
0.324585 0.569900 0.000000
0.386432 0.567314 0.000000
0.447401 0.564196 0.000000
0.508918 0.560435 0.000000
0.571911 0.555897 0.000000
0.637044 0.550422 0.000000
0.704818 0.543813 0.000000
0.775616 0.535834 0.000000
0.849725 0.526200 0.000000
0.927339 0.514558 0.000000
1.000000 0.500479 0.000000
1.000000 0.483425 0.000000
1.000000 0.462706 0.000000
1.000000 0.437410 0.000000
1.000000 0.406256 0.000000
1.000000 0.367284 0.000000
0.000000 0.630370 0.000000
0.000000 0.630340 0.000000
0.000000 0.630235 0.000000
0.000000 0.630042 0.000000
0.000000 0.629753 0.000000
0.000000 0.629362 0.000000
0.000000 0.628865 0.000000
0.000000 0.628259 0.000000
0.000000 0.627539 0.000000
0.000000 0.626703 0.000000
0.000000 0.625749 0.000000
0.000000 0.624674 0.000000
0.000000 0.623476 0.000000
0.000000 0.622153 0.000000
0.000000 0.620705 0.000000
0.000000 0.619129 0.000000
0.181120 0.617424 0.000000
0.269056 0.615479 0.000000
0.343046 0.613137 0.000000
0.411923 0.610316 0.000000
0.479121 0.606917 0.000000
0.546443 0.602823 0.000000
0.615005 0.597891 0.000000
0.685570 0.591953 0.000000
0.758685 0.584804 0.000000
0.834744 0.576203 0.000000
0.914016 0.565859 0.000000
0.996652 0.553422 0.000000
1.000000 0.538474 0.000000
1.000000 0.520499 0.000000
1.000000 0.498861 0.000000
1.000000 0.472741 0.000000
1.000000 0.441028 0.000000
0.000000 0.678143 0.000000
0.000000 0.678117 0.000000
0.000000 0.678021 0.000000
0.000000 0.677845 0.000000
0.000000 0.677582 0.000000
0.000000 0.677227 0.000000
0.000000 0.676775 0.000000
0.000000 0.676223 0.000000
0.000000 0.675568 0.000000
0.000000 0.674808 0.000000
0.000000 0.673941 0.000000
0.000000 0.672964 0.000000
0.000000 0.671876 0.000000
0.000000 0.670676 0.000000
0.000000 0.669361 0.000000
0.000000 0.667932 0.000000
0.000000 0.666386 0.000000
0.177447 0.664625 0.000000
0.280729 0.662504 0.000000
0.364039 0.659952 0.000000
0.440306 0.656881 0.000000
0.514011 0.653186 0.000000
0.587375 0.648742 0.000000
0.661708 0.643401 0.000000
0.737867 0.636987 0.000000
0.816440 0.629293 0.000000
0.897817 0.620073 0.000000
0.982237 0.609041 0.000000
1.000000 0.595859 0.000000
1.000000 0.580132 0.000000
1.000000 0.561392 0.000000
1.000000 0.539079 0.000000
1.000000 0.512505 0.000000
0.000000 0.729715 0.000000
0.000000 0.729690 0.000000
0.000000 0.729603 0.000000
0.000000 0.729444 0.000000
0.000000 0.729204 0.000000
0.000000 0.728881 0.000000
0.000000 0.728471 0.000000
0.000000 0.727969 0.000000
0.000000 0.727374 0.000000
0.000000 0.726684 0.000000
0.000000 0.725896 0.000000
0.000000 0.725009 0.000000
0.000000 0.724022 0.000000
0.000000 0.722932 0.000000
0.000000 0.721740 0.000000
0.000000 0.720444 0.000000
0.000000 0.719044 0.000000
0.000000 0.717448 0.000000
0.174407 0.715528 0.000000
0.294760 0.713219 0.000000
0.387855 0.710443 0.000000
0.471805 0.707107 0.000000
0.552255 0.703100 0.000000
0.631859 0.698291 0.000000
0.712123 0.692528 0.000000
0.793992 0.685631 0.000000
0.878077 0.677392 0.000000
0.964757 0.667570 0.000000
1.000000 0.655889 0.000000
1.000000 0.642035 0.000000
1.000000 0.625652 0.000000
1.000000 0.606339 0.000000
1.000000 0.583639 0.000000
0.000000 0.785157 0.000000
0.000000 0.785135 0.000000
0.000000 0.785056 0.000000
0.000000 0.784911 0.000000
0.000000 0.784694 0.000000
0.000000 0.784400 0.000000
0.000000 0.784027 0.000000
0.000000 0.783571 0.000000
0.000000 0.783031 0.000000
0.000000 0.782404 0.000000
0.000000 0.781689 0.000000
0.000000 0.780884 0.000000
0.000000 0.779987 0.000000
0.000000 0.778999 0.000000
0.000000 0.777918 0.000000
0.000000 0.776742 0.000000
0.000000 0.775473 0.000000
0.000000 0.774027 0.000000
0.000000 0.772289 0.000000
0.172931 0.770199 0.000000
0.311634 0.767689 0.000000
0.414807 0.764674 0.000000
0.506655 0.761058 0.000000
0.594031 0.756724 0.000000
0.680022 0.751538 0.000000
0.766323 0.745344 0.000000
0.853950 0.737962 0.000000
0.943527 0.729188 0.000000
1.000000 0.718793 0.000000
1.000000 0.706521 0.000000
1.000000 0.692094 0.000000
1.000000 0.675211 0.000000
1.000000 0.655554 0.000000
0.000000 0.844499 0.000000
0.000000 0.844479 0.000000
0.000000 0.844407 0.000000
0.000000 0.844275 0.000000
0.000000 0.844078 0.000000
0.000000 0.843811 0.000000
0.000000 0.843472 0.000000
0.000000 0.843058 0.000000
0.000000 0.842567 0.000000
0.000000 0.841998 0.000000
0.000000 0.841348 0.000000
0.000000 0.840617 0.000000
0.000000 0.839804 0.000000
0.000000 0.838907 0.000000
0.000000 0.837925 0.000000
0.000000 0.836859 0.000000
0.000000 0.835708 0.000000
0.000000 0.834398 0.000000
0.000000 0.832823 0.000000
0.000000 0.830931 0.000000
0.174419 0.828658 0.000000
0.331898 0.825932 0.000000
0.445236 0.822664 0.000000
0.545093 0.818752 0.000000
0.639504 0.814078 0.000000
0.731965 0.808503 0.000000
0.824334 0.801873 0.000000
0.917686 0.794012 0.000000
