scripts/video-pipeline/hlg709.cube
TITLE "HLG BT.2020 -> sRGB BT.709 (chain-matched)"
LUT_3D_SIZE 9
0.000000 0.000000 0.000000
0.101231 0.000000 0.000000
0.239519 0.000000 0.000000
0.371022 0.000000 0.000000
0.497495 0.000000 0.000000
0.649514 0.000000 0.000000
0.865234 0.000000 0.000000
1.000000 0.000000 0.000000
1.000000 0.000000 0.000000
0.000000 0.078224 0.000000
0.075237 0.071910 0.000000
0.229813 0.044498 0.000000
0.365313 0.000000 0.000000
0.493545 0.000000 0.000000
0.646710 0.000000 0.000000
0.863307 0.000000 0.000000
1.000000 0.000000 0.000000
1.000000 0.000000 0.000000
0.000000 0.196146 0.000000
0.000000 0.193615 0.000000
0.190516 0.184245 0.000000
0.343926 0.165690 0.000000
0.479068 0.133493 0.000000
0.636540 0.044333 0.000000
0.856362 0.000000 0.000000
1.000000 0.000000 0.000000
1.000000 0.000000 0.000000
0.000000 0.308283 0.000000
0.000000 0.306780 0.000000
0.075495 0.301326 0.000000
0.300139 0.291068 0.000000
0.451153 0.275123 0.000000
0.617437 0.245099 0.000000
0.843505 0.165495 0.000000
1.000000 0.000000 0.000000
1.000000 0.000000 0.000000
0.000000 0.416131 0.000000
0.000000 0.415088 0.000000
0.000000 0.411327 0.000000
0.216651 0.404357 0.000000
0.405570 0.393805 0.000000
0.587810 0.374951 0.000000
0.824072 0.332549 0.000000
1.000000 0.222917 0.000000
1.000000 0.000000 0.000000
0.000000 0.545763 0.000000
0.000000 0.545021 0.000000
0.000000 0.542355 0.000000
0.000000 0.537451 0.000000
0.308390 0.530116 0.000000
0.532295 0.517294 0.000000
0.789445 0.489905 0.000000
1.000000 0.430315 0.000000
1.000000 0.287450 0.000000
0.000000 0.729715 0.000000
0.000000 0.729204 0.000000
0.000000 0.727374 0.000000
0.000000 0.724022 0.000000
0.000000 0.719044 0.000000
0.387855 0.710443 0.000000
0.712123 0.692528 0.000000
1.000000 0.655889 0.000000
1.000000 0.583639 0.000000
0.000000 0.974688 0.000000
0.000000 0.974339 0.000000
0.000000 0.973090 0.000000
0.000000 0.970806 0.000000
0.000000 0.967427 0.000000
0.000000 0.961624 0.000000
0.517975 0.949681 0.000000
0.951604 0.925893 0.000000
1.000000 0.881703 0.000000
0.000000 1.000000 0.000000
0.000000 1.000000 0.000000
0.000000 1.000000 0.000000
0.000000 1.000000 0.000000
0.000000 1.000000 0.000000
0.000000 1.000000 0.000000
0.000000 1.000000 0.000000
0.721165 1.000000 0.000000
1.000000 1.000000 0.000000
0.000000 0.000000 0.077525
0.098340 0.000000 0.076623
0.238340 0.000000 0.073318
0.370320 0.000000 0.066965
0.497008 0.000000 0.056653
0.649168 0.000000 0.035184
0.864995 0.000000 0.000000
1.000000 0.000000 0.000000
1.000000 0.000000 0.000000
0.000000 0.077816 0.072423
0.071479 0.071474 0.071469
0.228578 0.043884 0.067968
0.364598 0.000000 0.061197
0.493053 0.000000 0.050072
0.646361 0.000000 0.027188
0.863068 0.000000 0.000000
1.000000 0.000000 0.000000
1.000000 0.000000 0.000000
0.000000 0.195978 0.051233
0.000000 0.193445 0.049999
0.188993 0.184065 0.045404
0.343157 0.165489 0.036231
0.478557 0.133243 0.022314
0.636184 0.043717 0.000000
0.856121 0.000000 0.000000
1.000000 0.000000 0.000000
1.000000 0.000000 0.000000
0.000000 0.308183 0.000107
0.000000 0.306680 0.000000
0.071748 0.301223 0.000000
0.299234 0.290961 0.000000
0.450602 0.275008 0.000000
0.617067 0.244969 0.000000
0.843259 0.165294 0.000000
1.000000 0.000000 0.000000
1.000000 0.000000 0.000000
0.000000 0.416062 0.000000
0.000000 0.415019 0.000000
0.000000 0.411257 0.000000
0.215331 0.404285 0.000000
0.404941 0.393731 0.000000
0.587416 0.374872 0.000000
0.823818 0.332457 0.000000
1.000000 0.222772 0.000000
1.000000 0.000000 0.000000
0.000000 0.545714 0.000000
0.000000 0.544972 0.000000
0.000000 0.542306 0.000000
0.000000 0.537400 0.000000
0.307513 0.530065 0.000000
0.531848 0.517241 0.000000
0.789176 0.489849 0.000000
1.000000 0.430249 0.000000
1.000000 0.287341 0.000000
0.000000 0.729681 0.000000
0.000000 0.729170 0.000000
0.000000 0.727340 0.000000
0.000000 0.723988 0.000000
0.000000 0.719009 0.000000
0.387190 0.710408 0.000000
0.711815 0.692492 0.000000
1.000000 0.655850 0.000000
1.000000 0.583594 0.000000
0.000000 0.974665 0.000000
0.000000 0.974316 0.000000
0.000000 0.973066 0.000000
0.000000 0.970782 0.000000
0.000000 0.967403 0.000000
0.000000 0.961600 0.000000
0.517512 0.949657 0.000000
0.951394 0.925868 0.000000
1.000000 0.881676 0.000000
0.000000 1.000000 0.000000
0.000000 1.000000 0.000000
0.000000 1.000000 0.000000
0.000000 1.000000 0.000000
0.000000 1.000000 0.000000
0.000000 1.000000 0.000000
0.000000 1.000000 0.000000
0.720862 1.000000 0.000000
1.000000 1.000000 0.000000
0.000000 0.000000 0.194830
0.087302 0.000000 0.194459
0.234068 0.000000 0.193128
0.367796 0.000000 0.190674
0.495259 0.000000 0.186993
0.647925 0.000000 0.180525
0.864141 0.000000 0.166544
1.000000 0.000000 0.135112
1.000000 0.000000 0.045185
0.000000 0.076343 0.192774
0.056530 0.069895 0.192399
0.224095 0.041638 0.191052
0.362025 0.000000 0.188569
0.491286 0.000000 0.184843
0.645112 0.000000 0.178290
0.862211 0.000000 0.164107
1.000000 0.000000 0.132082
1.000000 0.000000 0.037438
0.000000 0.195378 0.185211
0.000000 0.192836 0.184820
0.183432 0.183422 0.183412
0.340386 0.164769 0.180815
0.476723 0.132343 0.176913
0.634909 0.041466 0.170033
0.855255 0.000000 0.155054
1.000000 0.000000 0.120625
1.000000 0.000000 0.008817
0.000000 0.307826 0.170488
0.000000 0.306320 0.170061
0.056851 0.300856 0.168521
0.295965 0.290578 0.165675
0.448623 0.274599 0.161385
0.615740 0.244501 0.153774
0.842375 0.164572 0.136969
1.000000 0.000000 0.096495
1.000000 0.000000 0.000000
0.000000 0.415814 0.145947
0.000000 0.414769 0.145444
0.000000 0.411005 0.143631
0.210530 0.404028 0.140263
0.402680 0.393465 0.135147
0.586002 0.374590 0.125940
0.822907 0.332131 0.104859
1.000000 0.222251 0.045388
1.000000 0.000000 0.000000
0.000000 0.545537 0.089921
0.000000 0.544795 0.089125
0.000000 0.542127 0.086225
0.000000 0.537220 0.080711
0.304350 0.529882 0.071960
0.530243 0.517052 0.054683
0.788213 0.489646 0.008187
1.000000 0.430010 0.000000
1.000000 0.286953 0.000000
0.000000 0.729559 0.000000
0.000000 0.729049 0.000000
0.000000 0.727218 0.000000
0.000000 0.723865 0.000000
0.000000 0.718885 0.000000
0.384801 0.710282 0.000000
0.710713 0.692362 0.000000
1.000000 0.655710 0.000000
1.000000 0.583432 0.000000
0.000000 0.974582 0.000000
0.000000 0.974233 0.000000
0.000000 0.972983 0.000000
0.000000 0.970699 0.000000
0.000000 0.967319 0.000000
0.000000 0.961515 0.000000
0.515850 0.949571 0.000000
0.950641 0.925779 0.000000
1.000000 0.881581 0.000000
0.000000 1.000000 0.000000
0.000000 1.000000 0.000000
0.000000 1.000000 0.000000
0.000000 1.000000 0.000000
0.000000 1.000000 0.000000
0.000000 1.000000 0.000000
0.000000 1.000000 0.000000
0.719777 1.000000 0.000000
1.000000 1.000000 0.000000
0.000000 0.000000 0.306379
0.063304 0.000000 0.306158
0.226041 0.000000 0.305367
0.363137 0.000000 0.303918
0.492049 0.000000 0.301766
0.645651 0.000000 0.298053
0.862581 0.000000 0.290329
1.000000 0.000000 0.274590
1.000000 0.000000 0.243821
0.000000 0.073595 0.305157
0.021008 0.066940 0.304935
0.215648 0.037363 0.304140
0.357275 0.000000 0.302684
0.488044 0.000000 0.300522
0.642825 0.000000 0.296790
0.860646 0.000000 0.289027
1.000000 0.000000 0.273199
1.000000 0.000000 0.242224
0.000000 0.194277 0.300734
0.000000 0.191719 0.300509
0.172794 0.182243 0.299700
0.335262 0.163446 0.298218
0.473354 0.130685 0.296017
0.632574 0.037185 0.292217
0.853673 0.000000 0.284306
1.000000 0.000000 0.268151
1.000000 0.000000 0.236407
0.000000 0.307172 0.292465
0.000000 0.305662 0.292232
0.021414 0.300184 0.291396
0.289892 0.289878 0.289864
0.444986 0.273851 0.287588
0.613311 0.243645 0.283654
0.840762 0.163248 0.275454
1.000000 0.000000 0.258650
1.000000 0.000000 0.225360
0.000000 0.415360 0.279750
0.000000 0.414314 0.279504
0.000000 0.410544 0.278623
0.201448 0.403558 0.277008
0.398517 0.392979 0.274606
0.583414 0.374074 0.270451
0.821243 0.331534 0.261766
1.000000 0.221297 0.243865
1.000000 0.000000 0.207869
0.000000 0.545215 0.256337
0.000000 0.544472 0.256065
0.000000 0.541802 0.255089
0.000000 0.536891 0.253298
0.298479 0.529547 0.250631
0.527301 0.516707 0.246004
0.786452 0.489276 0.236277
1.000000 0.429575 0.215952
1.000000 0.286242 0.173536
0.000000 0.729337 0.199003
0.000000 0.728827 0.198641
0.000000 0.726995 0.197340
0.000000 0.723641 0.194944
0.000000 0.718659 0.191353
0.380396 0.710052 0.185049
0.708696 0.692124 0.171463
1.000000 0.655455 0.141165
1.000000 0.583136 0.059001
0.000000 0.974430 0.000000
0.000000 0.974081 0.000000
0.000000 0.972831 0.000000
0.000000 0.970546 0.000000
0.000000 0.967166 0.000000
0.000000 0.961361 0.000000
0.512802 0.949414 0.000000
0.949265 0.925617 0.000000
1.000000 0.881408 0.000000
0.000000 1.000000 0.000000
0.000000 1.000000 0.000000
0.000000 1.000000 0.000000
0.000000 1.000000 0.000000
0.000000 1.000000 0.000000
0.000000 1.000000 0.000000
0.000000 1.000000 0.000000
0.717794 1.000000 0.000000
1.000000 1.000000 0.000000
0.000000 0.000000 0.413662
0.012045 0.000000 0.413509
0.213589 0.000000 0.412959
0.356136 0.000000 0.411955
0.487270 0.000000 0.410470
0.642281 0.000000 0.407920
0.860274 0.000000 0.402673
1.000000 0.000000 0.392233
1.000000 0.000000 0.372876
0.000000 0.069388 0.412814
0.000000 0.062394 0.412660
0.202481 0.031017 0.412109
0.350131 0.000000 0.411103
0.483215 0.000000 0.409613
0.639435 0.000000 0.407057
0.858332 0.000000 0.401796
1.000000 0.000000 0.391327
1.000000 0.000000 0.371912
0.000000 0.192642 0.409759
0.000000 0.190060 0.409604
0.155712 0.180489 0.409048
0.327534 0.161476 0.408032
0.468334 0.128204 0.406529
0.629113 0.030839 0.403948
0.851335 0.000000 0.398638
1.000000 0.000000 0.388063
1.000000 0.000000 0.368436
0.000000 0.306205 0.404116
0.000000 0.304690 0.403959
0.000000 0.299191 0.403393
0.280659 0.288843 0.402360
0.439558 0.272744 0.400830
0.609709 0.242378 0.398204
0.838376 0.161275 0.392797
1.000000 0.000000 0.382023
1.000000 0.000000 0.361993
0.000000 0.414690 0.395618
0.000000 0.413642 0.395456
0.000000 0.409865 0.394875
0.187177 0.402863 0.393814
0.392281 0.392262 0.392244
0.579571 0.373312 0.389546
0.818782 0.330652 0.383989
1.000000 0.219883 0.372902
1.000000 0.000000 0.352235
0.000000 0.544739 0.380573
0.000000 0.543995 0.380404
0.000000 0.541323 0.379795
0.000000 0.536406 0.378682
0.289568 0.529053 0.377033
0.522925 0.516197 0.374201
0.783847 0.488730 0.368359
1.000000 0.428933 0.356676
1.000000 0.285192 0.334783
0.000000 0.729010 0.347506
0.000000 0.728499 0.347316
0.000000 0.726667 0.346636
0.000000 0.723310 0.345392
0.000000 0.718325 0.343548
0.373787 0.709714 0.340373
0.705711 0.691774 0.333806
1.000000 0.655079 0.320584
1.000000 0.582699 0.295443
0.000000 0.974206 0.269131
0.000000 0.973858 0.268874
0.000000 0.972607 0.267952
0.000000 0.970322 0.266261
0.000000 0.966940 0.263745
0.000000 0.961134 0.259387
0.508268 0.949183 0.250256
0.947233 0.925377 0.231328
1.000000 0.881153 0.192695
0.000000 1.000000 0.000000
0.000000 1.000000 0.000000
0.000000 1.000000 0.000000
0.000000 1.000000 0.000000
0.000000 1.000000 0.000000
0.000000 1.000000 0.000000
0.000000 1.000000 0.000000
0.714858 1.000000 0.000000
1.000000 1.000000 0.000000
0.000000 0.000000 0.542614
0.000000 0.000000 0.542505
0.190242 0.000000 0.542114
0.343787 0.000000 0.541401
0.478976 0.000000 0.540348
0.636476 0.000000 0.538544
0.856319 0.000000 0.534853
1.000000 0.000000 0.527588
1.000000 0.000000 0.514414
0.000000 0.061709 0.542011
0.000000 0.054008 0.541902
0.177531 0.020187 0.541510
0.337515 0.000000 0.540796
0.474831 0.000000 0.539741
0.633597 0.000000 0.537935
0.854365 0.000000 0.534238
1.000000 0.000000 0.526963
1.000000 0.000000 0.513768
0.000000 0.189816 0.539844
0.000000 0.187192 0.539735
0.120972 0.177455 0.539341
0.313817 0.158054 0.538623
0.459608 0.123858 0.537563
0.623150 0.020009 0.535747
0.847324 0.000000 0.532032
1.000000 0.000000 0.524717
1.000000 0.000000 0.511449
0.000000 0.304548 0.535865
0.000000 0.303022 0.535754
0.000000 0.297487 0.535357
0.264026 0.287066 0.534633
0.430096 0.270843 0.533562
0.603498 0.240197 0.531729
0.834283 0.157849 0.527977
1.000000 0.000000 0.520590
1.000000 0.000000 0.507185
0.000000 0.413544 0.529931
0.000000 0.412493 0.529819
0.000000 0.408702 0.529416
0.159657 0.401676 0.528681
0.381350 0.391035 0.527595
0.572938 0.372008 0.525735
0.814560 0.329140 0.521929
1.000000 0.217446 0.514432
1.000000 0.000000 0.500817
0.000000 0.543925 0.519605
0.000000 0.543180 0.519490
0.000000 0.540503 0.519077
0.000000 0.535576 0.518323
0.273569 0.528209 0.517210
0.515350 0.515327 0.515303
0.779375 0.487797 0.511398
1.000000 0.427834 0.503701
1.000000 0.283388 0.489708
0.000000 0.728451 0.497770
0.000000 0.727940 0.497649
0.000000 0.726106 0.497213
0.000000 0.722746 0.496417
0.000000 0.717756 0.495241
0.362168 0.709135 0.493226
0.700578 0.691176 0.489097
1.000000 0.654438 0.480947
1.000000 0.581953 0.466087
0.000000 0.973825 0.451488
0.000000 0.973476 0.451351
0.000000 0.972225 0.450858
0.000000 0.969938 0.449958
0.000000 0.966555 0.448627
0.000000 0.960745 0.446345
0.500411 0.948788 0.441660
0.943752 0.924969 0.432375
1.000000 0.880717 0.415313
0.000000 1.000000 0.350629
0.000000 1.000000 0.350441
0.000000 1.000000 0.349768
0.000000 1.000000 0.348537
0.000000 1.000000 0.346713
0.000000 1.000000 0.343574
0.000000 1.000000 0.337082
0.709811 1.000000 0.324021
1.000000 1.000000 0.299226
0.000000 0.000000 0.725601
0.000000 0.000000 0.725526
0.129360 0.000000 0.725257
0.316876 0.000000 0.724767
0.461533 0.000000 0.724044
0.624460 0.000000 0.722807
0.848203 0.000000 0.720284
1.000000 0.000000 0.715350
1.000000 0.000000 0.706510
0.000000 0.043406 0.725186
0.000000 0.033619 0.725111
0.109634 0.000000 0.724842
0.309945 0.000000 0.724352
0.457189 0.000000 0.723628
0.621509 0.000000 0.722390
0.846225 0.000000 0.719866
1.000000 0.000000 0.714928
1.000000 0.000000 0.706081
0.000000 0.183927 0.723699
0.000000 0.181211 0.723623
0.000000 0.171108 0.723354
0.283472 0.150850 0.722862
0.441198 0.114534 0.722136
0.610795 0.000000 0.720895
0.839094 0.000000 0.718363
1.000000 0.000000 0.713412
1.000000 0.000000 0.704540
0.000000 0.301144 0.720975
0.000000 0.299598 0.720900
0.000000 0.293986 0.720629
0.225815 0.283413 0.720134
0.410020 0.266930 0.719405
0.590610 0.235693 0.718158
0.825882 0.150635 0.715614
1.000000 0.000000 0.710637
1.000000 0.000000 0.701720
0.000000 0.411202 0.716937
0.000000 0.410144 0.716861
0.000000 0.406326 0.716588
0.078068 0.399248 0.716090
0.357856 0.388525 0.715355
0.559141 0.369338 0.714099
0.805887 0.326041 0.711536
1.000000 0.212395 0.706522
1.000000 0.000000 0.697536
0.000000 0.542267 0.709977
0.000000 0.541519 0.709900
0.000000 0.538831 0.709624
0.000000 0.533885 0.709119
0.237143 0.526488 0.708375
0.499499 0.513550 0.707102
0.770179 0.485893 0.704506
1.000000 0.425589 0.699427
1.000000 0.279679 0.690321
0.000000 0.727314 0.695547
0.000000 0.726802 0.695468
0.000000 0.724964 0.695184
0.000000 0.721597 0.694666
0.000000 0.716596 0.693901
0.337033 0.707957 0.692594
0.689989 0.689958 0.689927
1.000000 0.653130 0.684707
1.000000 0.580432 0.675342
0.000000 0.973048 0.666342
0.000000 0.972699 0.666259
0.000000 0.971447 0.665959
0.000000 0.969158 0.665411
0.000000 0.965771 0.664602
0.000000 0.959955 0.663220
0.483938 0.947984 0.660398
0.936622 0.924138 0.654871
1.000000 0.879831 0.644942
0.000000 1.000000 0.610170
0.000000 1.000000 0.610076
0.000000 1.000000 0.609740
0.000000 1.000000 0.609126
0.000000 1.000000 0.608220
0.000000 1.000000 0.606670
0.000000 1.000000 0.603503
0.699404 1.000000 0.597288
1.000000 1.000000 0.586085
0.000000 0.000000 0.969290
0.000000 0.000000 0.969239
0.000000 0.000000 0.969056
0.254840 0.000000 0.968721
0.425053 0.000000 0.968226
0.600223 0.000000 0.967383
0.832137 0.000000 0.965664
1.000000 0.000000 0.962314
1.000000 0.000000 0.956348
0.000000 0.000746 0.969007
0.000000 0.000000 0.968956
0.000000 0.000000 0.968772
0.245824 0.000000 0.968437
0.420235 0.000000 0.967942
0.597117 0.000000 0.967098
0.830108 0.000000 0.965379
1.000000 0.000000 0.962028
1.000000 0.000000 0.956059
0.000000 0.171863 0.967991
0.000000 0.168939 0.967939
0.000000 0.158006 0.967755
0.209922 0.135741 0.967420
0.402397 0.094004 0.966925
0.585826 0.000000 0.966080
0.822793 0.000000 0.964358
1.000000 0.000000 0.961002
1.000000 0.000000 0.955025
0.000000 0.294398 0.966135
0.000000 0.292810 0.966083
0.000000 0.287041 0.965899
0.115992 0.276155 0.965562
0.367089 0.259130 0.965066
0.564487 0.226652 0.964218
0.809230 0.135502 0.962492
1.000000 0.000000 0.959127
1.000000 0.000000 0.953135
0.000000 0.406605 0.963390
0.000000 0.405531 0.963338
0.000000 0.401659 0.963153
0.000000 0.394478 0.962815
0.305879 0.383590 0.962317
0.531017 0.364084 0.961467
0.788677 0.319916 0.959734
1.000000 0.202180 0.956356
1.000000 0.000000 0.950341
0.000000 0.539027 0.958682
0.000000 0.538274 0.958630
0.000000 0.535565 0.958444
0.000000 0.530580 0.958104
0.137413 0.523123 0.957603
0.466742 0.510077 0.956746
0.751890 0.482167 0.955002
1.000000 0.421185 0.951602
1.000000 0.272304 0.945547
0.000000 0.725097 0.949016
0.000000 0.724583 0.948963
0.000000 0.722738 0.948774
0.000000 0.719357 0.948430
0.000000 0.714336 0.947922
0.280371 0.705661 0.947054
0.668792 0.687584 0.945286
1.000000 0.650581 0.941839
1.000000 0.577463 0.935700
0.000000 0.971538 0.929854
0.000000 0.971188 0.929800
0.000000 0.969933 0.929606
0.000000 0.967639 0.929252
0.000000 0.964245 0.928730
0.000000 0.958417 0.927838
0.449741 0.946420 0.926022
0.922561 0.922520 0.922480
1.000000 0.878105 0.916168
0.000000 1.000000 0.894610
0.000000 1.000000 0.894553
0.000000 1.000000 0.894349
0.000000 1.000000 0.893976
0.000000 1.000000 0.893427
0.000000 1.000000 0.892488
0.000000 1.000000 0.890576
0.678589 1.000000 0.886846
1.000000 1.000000 0.880195
0.000000 0.000000 1.000000
0.000000 0.000000 1.000000
0.000000 0.000000 1.000000
0.018821 0.000000 1.000000
0.348735 0.000000 1.000000
0.553960 0.000000 1.000000
0.802668 0.000000 1.000000
1.000000 0.000000 1.000000
1.000000 0.000000 1.000000
0.000000 0.000000 1.000000
0.000000 0.000000 1.000000
0.000000 0.000000 1.000000
0.000000 0.000000 1.000000
0.342572 0.000000 1.000000
0.550517 0.000000 1.000000
0.800541 0.000000 1.000000
1.000000 0.000000 1.000000
1.000000 0.000000 1.000000
0.000000 0.147985 1.000000
0.000000 0.144559 1.000000
0.000000 0.131560 1.000000
0.000000 0.103870 1.000000
0.319327 0.042068 1.000000
0.537960 0.000000 1.000000
0.792866 0.000000 1.000000
1.000000 0.000000 1.000000
1.000000 0.000000 1.000000
0.000000 0.281995 1.000000
0.000000 0.280324 1.000000
0.000000 0.274245 1.000000
0.000000 0.262736 1.000000
0.270748 0.244624 1.000000
0.514053 0.209575 1.000000
0.778614 0.103560 1.000000
1.000000 0.000000 1.000000
1.000000 0.000000 1.000000
0.000000 0.398310 1.000000
0.000000 0.397208 1.000000
0.000000 0.393235 1.000000
0.000000 0.385860 1.000000
0.171106 0.374664 1.000000
0.476009 0.354555 1.000000
0.756963 0.308723 1.000000
1.000000 0.182566 1.000000
1.000000 0.000000 1.000000
0.000000 0.533234 1.000000
0.000000 0.532469 1.000000
0.000000 0.529723 1.000000
0.000000 0.524668 1.000000
0.000000 0.517102 1.000000
0.400416 0.503858 1.000000
0.718028 0.475484 1.000000
1.000000 0.413251 1.000000
1.000000 0.258652 1.000000
0.000000 0.721154 1.000000
0.000000 0.720636 1.000000
0.000000 0.718778 1.000000
0.000000 0.715373 1.000000
0.000000 0.710315 1.000000
0.115026 0.701575 1.000000
0.628997 0.683357 1.000000
1.000000 0.646038 1.000000
1.000000 0.572161 1.000000
0.000000 0.968858 1.000000
0.000000 0.968506 1.000000
0.000000 0.967247 1.000000
0.000000 0.964944 1.000000
0.000000 0.961538 1.000000
0.000000 0.955687 1.000000
0.379661 0.943645 1.000000
0.896965 0.919649 1.000000
1.000000 0.875040 1.000000
0.000000 1.000000 1.000000
0.000000 1.000000 1.000000
0.000000 1.000000 1.000000
0.000000 1.000000 1.000000
0.000000 1.000000 1.000000
0.000000 1.000000 1.000000
0.000000 1.000000 1.000000
0.639586 1.000000 1.000000
1.000000 1.000000 1.000000
