scripts/video-pipeline/hlg709.cube
TITLE "HLG BT.2020 -> sRGB BT.709 (chain-matched)"
LUT_3D_SIZE 5
0.000000 0.000000 0.000000
0.239519 0.000000 0.000000
0.497495 0.000000 0.000000
0.865234 0.000000 0.000000
1.000000 0.000000 0.000000
0.000000 0.196146 0.000000
0.190516 0.184245 0.000000
0.479068 0.133493 0.000000
0.856362 0.000000 0.000000
1.000000 0.000000 0.000000
0.000000 0.416131 0.000000
0.000000 0.411327 0.000000
0.405570 0.393805 0.000000
0.824072 0.332549 0.000000
1.000000 0.000000 0.000000
0.000000 0.729715 0.000000
0.000000 0.727374 0.000000
0.000000 0.719044 0.000000
0.712123 0.692528 0.000000
1.000000 0.583639 0.000000
0.000000 1.000000 0.000000
0.000000 1.000000 0.000000
0.000000 1.000000 0.000000
0.000000 1.000000 0.000000
1.000000 1.000000 0.000000
0.000000 0.000000 0.194830
0.234068 0.000000 0.193128
0.495259 0.000000 0.186993
0.864141 0.000000 0.166544
1.000000 0.000000 0.045185
0.000000 0.195378 0.185211
0.183432 0.183422 0.183412
0.476723 0.132343 0.176913
0.855255 0.000000 0.155054
1.000000 0.000000 0.008817
0.000000 0.415814 0.145947
0.000000 0.411005 0.143631
0.402680 0.393465 0.135147
0.822907 0.332131 0.104859
1.000000 0.000000 0.000000
0.000000 0.729559 0.000000
0.000000 0.727218 0.000000
0.000000 0.718885 0.000000
0.710713 0.692362 0.000000
1.000000 0.583432 0.000000
0.000000 1.000000 0.000000
0.000000 1.000000 0.000000
0.000000 1.000000 0.000000
0.000000 1.000000 0.000000
1.000000 1.000000 0.000000
0.000000 0.000000 0.413662
0.213589 0.000000 0.412959
0.487270 0.000000 0.410470
0.860274 0.000000 0.402673
1.000000 0.000000 0.372876
0.000000 0.192642 0.409759
0.155712 0.180489 0.409048
0.468334 0.128204 0.406529
0.851335 0.000000 0.398638
1.000000 0.000000 0.368436
0.000000 0.414690 0.395618
0.000000 0.409865 0.394875
0.392281 0.392262 0.392244
0.818782 0.330652 0.383989
1.000000 0.000000 0.352235
0.000000 0.729010 0.347506
0.000000 0.726667 0.346636
0.000000 0.718325 0.343548
0.705711 0.691774 0.333806
1.000000 0.582699 0.295443
0.000000 1.000000 0.000000
0.000000 1.000000 0.000000
0.000000 1.000000 0.000000
0.000000 1.000000 0.000000
1.000000 1.000000 0.000000
0.000000 0.000000 0.725601
0.129360 0.000000 0.725257
0.461533 0.000000 0.724044
0.848203 0.000000 0.720284
1.000000 0.000000 0.706510
0.000000 0.183927 0.723699
0.000000 0.171108 0.723354
0.441198 0.114534 0.722136
0.839094 0.000000 0.718363
1.000000 0.000000 0.704540
0.000000 0.411202 0.716937
0.000000 0.406326 0.716588
0.357856 0.388525 0.715355
0.805887 0.326041 0.711536
1.000000 0.000000 0.697536
0.000000 0.727314 0.695547
0.000000 0.724964 0.695184
0.000000 0.716596 0.693901
0.689989 0.689958 0.689927
1.000000 0.580432 0.675342
0.000000 1.000000 0.610170
0.000000 1.000000 0.609740
0.000000 1.000000 0.608220
0.000000 1.000000 0.603503
1.000000 1.000000 0.586085
0.000000 0.000000 1.000000
0.000000 0.000000 1.000000
0.348735 0.000000 1.000000
0.802668 0.000000 1.000000
1.000000 0.000000 1.000000
0.000000 0.147985 1.000000
0.000000 0.131560 1.000000
0.319327 0.042068 1.000000
0.792866 0.000000 1.000000
1.000000 0.000000 1.000000
0.000000 0.398310 1.000000
0.000000 0.393235 1.000000
0.171106 0.374664 1.000000
0.756963 0.308723 1.000000
1.000000 0.000000 1.000000
0.000000 0.721154 1.000000
0.000000 0.718778 1.000000
0.000000 0.710315 1.000000
0.628997 0.683357 1.000000
1.000000 0.572161 1.000000
0.000000 1.000000 1.000000
0.000000 1.000000 1.000000
0.000000 1.000000 1.000000
0.000000 1.000000 1.000000
1.000000 1.000000 1.000000
